X: 2
T: Katrilli Suoj\"arvelt\"a
O: trad. Finland
R: polka, march
Z: 2013 John Chambers <jc:trillian.mit.edu>
S: printed MS of unknown origin
M: C
L: 1/8
K: G
B/c/ | "G"d d2 d2 d cB | "D7"d d2 d2 d2 d | "D7"f2 fe dc BA | "G"g g2 g g3 :|
|: z | "G"b2 g2 e2 dB | "D7"d d2 d2 d2 d | "D7"f2 fe dc BA | "G"g g2 g g3 :|
